X:1
T:9 Lieder und Gesänge, Op.63
T:Junge Lieder II
T:Johannes Brahms
T:Felix Schumann
T:9 Lieder und Gesänge, Op.63
T:6. Junge Lieder II
T:Creative Commons copyright waiver (CC0 1.0 Universal) 
T:Creative Commons copyright waiver (CC0 1.0 Universal) 
T:Creative Commons copyright waiver (CC0 1.0 Universal) 
T:Creative Commons copyright waiver (CC0 1.0 Universal) 
T:Creative Commons copyright waiver (CC0 1.0 Universal) 
C:Johannes Brahms
Z:Felix Schumann
Z:Creative Commons copyright waiver (CC0 1.0 Universal)
Z:
%%score 1 { ( 2 3 ) | ( 4 5 ) }
L:1/8
Q:1/4=116
M:6/4
K:D
V:1 treble nm="Singstimme\nVoice"
V:2 treble nm="Pianoforte"
V:3 treble 
V:4 bass 
V:5 bass 
V:1
"^Zart bewegt" z2 | z12 | z12[Q:1/4=110] |[Q:1/4=104] z6 z2 z2[Q:1/4=120] d2 | c3 c B2 c2 A2 B2 | %5
w: |||Wenn|um den Hol- lun- der der|
 A2 F2 G2 A2 c2 e2 | (g2 f2) e2 B2 A2 d2 | e4 B2 c2 z2 A2 | _B3 =c d2 g4 c2 | (_B3 =c) d2 g4 e e | %10
w: A- bend- wind kost und der|Fal- * ter um den Jas-|mi- nen- strauch, dann|kos ich mit mei- nem|Lieb- * chen auch auf der|
 =f4 e2 ^c2 d2 _B2 | A4 ^G2 e4 A A | f4 c2 d2 ^A2 B2 | =A6- A4 C2 | %14
w: Stein- bank schat- tig und|weich be- moost, auf der|Stein- bank schat- tig und|weich _ be-|
[Q:1/4=108] D4 z2 z4[Q:1/4=122] d2 | c4 B2 c2 A2 B2 | A2 F2 G2 A2 c2 e2 | (g2 f2) e2 B2 A2 d2 | %18
w: moost. Und|wenn vom Dor- fe die|Glo- cke er- schallt und der|Ler- * che ju- beln- des|
 e3 B B2 c4 A2 | _B3 =c d2 g4 c c | _B3 =c d2 g4 e e | =f4 e2 ^c2 d2 _B2 | A3 A ^G2 e4 A A | %23
w: A- bend- ge- bet, dann|schwei- gen wir auch, und die|See- le zer- geht vor der|Lie- be hei- li- ger|Got- tes- ge- walt, vor der|
 ^f4 ^c2 d2 ^A2 B2 |[Q:1/4=110] =A6[Q:1/4=106] C4 C2 |[Q:1/4=106] D4 z2 z6 | z12 | z12 | %28
w: Lie- be hei- li- ger|Got- tes- ge-|walt.|||
[Q:1/4=108] z6 z2 z2[Q:1/4=122] d2 | c3 c B2 c2 A2 B2 | (A2 F2) G2 A2 c2 e2 | g2 f2 e2 (B2 A2) d2 | %32
w: Und|blickt dann vom Him- mel der|Ster- * ne Schaar und das|Glüh- würm- chen in _ der|
 e4 B2 c2 z2 A2 | _B3 =c d2 g4 c c | _B3 =c d2 g4[Q:1/4=114] e2 | =f3 f e2[Q:1/4=110] ^c2 d2 _B2 | %36
w: Li- lie Schooß, dann|las- se ich sie aus den|Ar- * men los und|küs- se ihr schei- dend das|
[Q:1/4=108] A4 ^G2[Q:1/4=102] e4 A2 | f3 f c2[Q:1/4=100] d2 ^A2 B2 | %38
w: Au- gen- paar, und|küs- se ihr schei- dend das|
[Q:1/4=94] =A6-[Q:1/4=92] A4 C2 |[Q:1/4=88] D4 z2 z6 | z6 z4 |] %41
w: Au    \-- * \-    gen-|paar.||
V:2
 (d2 | c4 B2 A4 G2-) |!<(! (G2 F2 G2!<)!!>(! A2 B2 E2)!>)! | (E4- EF G4) z!p! [df]- | %4
 ([df] [ce]2 [ce]2 [Bd]2 [Ac]2 [Ac]2 [GB]-) | ([GB] [FA]2 [FA]2 [EG]2 [DF]2 [CE]2 [A,A]) | %6
 z ([DG]2 [DF]2 [DB]) z ([CE]2 [A,E]2 [A,A]) | z ([B,A]2 [E^G]2 [EBe]) z ([CB]2 [EA]2 [Ae]) | %8
 z!<(! (_B2 A2!<)! G) z!>(! (d2 =c2!>)! B) | z!<(! _B2 A2!<)! G x!>(! (e2 d2!>)! =c) | %10
 z ([=c=f]=F[A^c]^C[FA]) z ([^FA]D[G_B]_B,[DG]) |!<(! ([A,D=F]4!<)! [^G,DE]2!>(! [=G,A,EA]6)!>)! | %12
 z ([A^f]F[Ad]E[Gc]) (D[Ad]C[E^A]B,[DEB]) |!>(! [A,DF=A]6!>)! [A,C]6 | [F,D]4 z2 DFAdf!p![df]- | %15
 ([df] [ce]2 [ce]2 [Bd]2 [Ac]2 [Ac]2 [GB]-) | ([GB] [FA]2 [FA]2 [EG]2 [DF]2 [CE]2 [A,A]) | %17
 z ([DG]2 [DF]2 [DB]) z ([CE]2 [A,D]2 [A,A]) | z ([B,A]2 [E^G]2 [EBe]) z ([CB]2 [EA]2 [Ae]) | %19
 z!<(! (_B2 A2!<)! G)!>(! z (d2 =c2!>)! B) |!<(! z (_B2 A2!<)! G)!>(! z (e2 d2!>)! =c) | %21
 z ([=c=f]=F[A^c]^C[FA]) z ([^FA]D[G_B]_B,[DG]) |!<(! ([A,D=F]4!<)! [^G,DE]2!>(! [=G,A,EA]6)!>)! | %23
 z ([A^f]F[Ad]E[Gc]) (D[Ad]C[E^A]B,[DEB]) |!>(! [A,DF=A]6!>)! [A,C]6 | %25
!<(! [F,D]4[I:staff +1] A,[I:staff -1]D (FEB,D!<)!FB) | c4 B2 A4 G2- | %27
!<(! (G2 F2 G2!<)!!>(! A2 B2 E2)!>)! |!>(! (E4- E!>)!F G4)!p! z [df]- | %29
 ([df] [ce]2 [ce]2 [Bd]2 [Ac]2 [Ac]2 [GB]-) | ([GB] [FA]2 [FA]2 [EG]2 [DF]2 [CE]2 [A,A]) | %31
 z ([DG]2 [DF]2 [DB]) z ([CE]2 [A,D]2 [A,A]) | z ([B,A]2 [E^G]2 [EBe]) z ([CB]2 [EA]2 [Ae]) | %33
 z!<(! (_B2 A2!<)! G) z!>(! (d2 =c2!>)! B) | z!<(! (_B2 A2!<)! G) z!>(! (e2 d2!>)! =c) | %35
 z ([=c=f]=F[A^c]^C[FA]) z ([^FA]D[G_B]_B,[DG]) |!<(! ([A,D=F]4!<)! [^G,DE]2!>(! [=G,A,EA]6)!>)! | %37
 z ([A^f]F[Ad]E[Gc]) (D[Ad]C[E^A]B,[DEB]) |!>(! [A,DF=A]6!>)! [A,C]6 | %39
 [F,D]4 z2[I:staff +1] D[I:staff -1]F-A-d- [FAdf]2- | [FAdf]6- [FAdf]4 |] %41
V:3
 FA | EGEGDF CECECE | CEF,DG,D A,DB,DB,(D | D6) C4 x2 | x12 | x12 | x12 | x12 | %8
 x G=C^FDG x _B=CGCG | z G=C^FDG z GEGCG | x12 | x12 | x12 | x12 | x12 | x12 | x12 | x12 | x12 | %19
 x G=C^FDG x _BCGCG | x G=C^FDG x GEGCG | x12 | x12 | x12 | x12 | x6 z2 z2 d2 | EAEADF CECECE | %27
 CEF,DG,D A,DB,DB,D- | D6 C4 x2 | x12 | x12 | x12 | x12 | x G=C^FDG x _BCGCG | x G=C^FDG x GEGCG | %35
 x12 | x12 | x12 | x12 | x12 | x10 |] %41
V:4
!f!!>(! (D,2!>)! | A,4)[K:treble]!>(! (^g2!>)! a4)[K:bass] (^A,,2 | B,,2) (D,4 D,6) | %3
 (A,,,E,,A,,E,- A,2-) A,4[K:treble] (D2 |"^dolce" A4 D2[K:bass] A,4 D,2 | %5
 A,,4 D,,2) (A,,,2 A,,2 C,2) | D,6 A,,6 | (E,,2 B,,2 ^G,2) (A,,2 E,2 C2) | %8
 (G,,2 A,,2 _B,,2) (=F,,2 E,,4) | (G,,2 A,,2 _B,,2) (=C,,2 _B,,,4) | [A,,,A,,]6 [_B,,,_B,,]6 | %11
 (=B,,,=B,,D,E,) z2 (C,,A,,C,E,) z2 | ([D,,D,]4 [E,,E,]2 [F,,F,]2 [G,,G,]2 [^G,,^G,]2) | %13
 (A,,,F,,A,,D,F,^G,) [A,,E,=G,]6 | D,,F,,A,,D,F,A, z2 z2 (D,,2 | A,,4) (D,,2 A,,4) (D,,2 | %16
 A,,4) (D,,2 A,,4) C,2 | D,6 A,,6 | (E,,2 B,,2 ^G,2) (A,,2 E,2 C2) | %19
 (G,,2 A,,2 _B,,2) (=F,,2 E,,4) | (G,,2 A,,2 _B,,2) (=C,,2 _B,,,4) | [A,,,A,,]6 [_B,,,_B,,]6 | %22
 (=B,,,=B,,D,E,) z2 (C,,A,,C,E,) z2 | ([D,,D,]4 [E,,E,]2 [F,,F,]2 [G,,G,]2 [^G,,^G,]2) | %24
 (A,,,F,,A,,D,F,^G,) [A,,E,=G,]6 | D,,A,,D,F, [D,A,]2 ^G,6 | %26
 A,4[K:treble]!>(! (^g2!>)! a4)[K:bass] (^A,,2 | B,,2) D,4- D,2 D,4 | %28
 (A,,,E,,A,,E,- A,2-) A,4[K:treble] (D2 |"^dolce" A4 D2[K:bass] A,4 D,2 | %30
 A,,4 D,,2) (A,,,2 A,,2 C,2) | D,6 A,,6 | (E,,2 B,,2 ^G,2) (A,,2 E,2 C2) | %33
 (G,,2 A,,2 _B,,2) (=F,,2 E,,4) | (G,,2 A,,2 _B,,2) (=C,,2 _B,,,4) | [A,,,A,,]6 [_B,,,_B,,]6 | %36
 (=B,,,=B,,D,E,) z2 (C,,A,,C,E,) z2 | ([D,,D,]4 [E,,E,]2 [F,,F,]2 [G,,G,]2 [^G,,^G,]2) | %38
 (A,,,F,,A,,D,F,^G,) [A,,E,=G,]6 | D,,F,,A,,D,F,A, x4 A,,,2 | [D,,A,,D,]6- [D,,A,,D,]4 |] %41
V:5
 x2 | x4[K:treble] x6[K:bass] x2 | x2 (=C,2 B,,2 =A,,2 G,,2 ^G,,2) | %3
 x2 A,,2- [A,,E,]2- [A,,E,]4[K:treble] x2 | x6[K:bass] x6 | x12 | %6
 (B,,2 A,,2 ^G,,2 =G,,2 F,,2 =F,,2) | x12 | x12 | x12 | x12 | x12 | x12 | x12 | x12 | A,,,6 A,,,6 | %16
 A,,,6 A,,,4 z2 | (B,,2 A,,2 ^G,,2 =G,,2 F,,2 =F,,2) | x12 | x12 | x12 | x12 | x12 | x12 | x12 | %25
 x6 ^G,6 | x4[K:treble] x6[K:bass] x2 | x2 (=C,2 B,,2 =A,,2 G,,2 ^G,,2) | %28
 x2 A,,2- [A,,E,]2- [A,,E,]4[K:treble] x2 | x6[K:bass] x6 | x12 | %31
 (B,,2 A,,2 ^G,,2 =G,,2 F,,2 =F,,2) | x12 | x12 | x12 | x12 | x12 | x12 | x12 | x12 | x10 |] %41

